X:9886
T:Lord Nelson's Hornpipe. JMT078
M:4/4
L:1/8
Q:200
S:J.Moore,Tyneside,1841.(54a)
R:Hornpipe
O:England
A:Northumbria
Z:C.G.P
K:D
AF|D2d2d2c>d|ecAce2de|fdfd g>eg.e|a>fd>fe2AF|
D2d2d2cd|!ecAce2cd|e>ce>c dBGB|A2A2A2:|
|:f>g|a>gf>e d>cB>A|B2G2G2gg|!b>ag>f e>dc>B|c2A2A2fg|
afaf gbgb|afaf gbgb|afaf fedc|d2d2d2:|
